icons-rebrand/svg/away-calling-presence-filled.svg

<svg width="32" height="32" viewBox="0 0 32 32" fill="none" xmlns="http://www.w3.org/2000/svg">
<path d="M17 9C17 5.68629 19.6863 3 23 3C26.3137 3 29 5.68629 29 9C29 12.3137 26.3137 15 23 15C19.6863 15 17 12.3137 17 9ZM19.5 8C18.9477 8 18.5 8.44772 18.5 9C18.5 9.55228 18.9477 10 19.5 10L26.5 10C27.0523 10 27.5 9.55228 27.5 9C27.5 8.44771 27.0523 8 26.5 8L19.5 8Z" fill="#0F0F0F"/>
<path d="M27.8063 21.7444L25.0003 18.9382C24.4311 18.3711 23.6601 18.0528 22.8565 18.0534C22.053 18.0539 21.2824 18.3731 20.7139 18.941C20.7139 18.941 19.2125 20.4681 18.9056 20.7915C17.8872 20.8084 16.8758 20.6195 15.9321 20.2362C14.9884 19.8528 14.1318 19.2829 13.4137 18.5605C11.9804 17.114 11.1645 15.1677 11.1377 13.1315C11.508 12.7604 13.0333 11.2608 13.036 11.258C13.3174 10.9768 13.5407 10.643 13.693 10.2754C13.8453 9.90794 13.9237 9.51403 13.9237 9.11621C13.9237 8.7184 13.8453 8.32448 13.693 7.95697C13.5407 7.58947 13.3174 7.25558 13.036 6.97439L10.2297 4.16863C9.65023 3.61571 8.88006 3.30722 8.07913 3.30722C7.27819 3.30722 6.50802 3.61571 5.92856 4.16863L4.4281 5.66824C3.31351 6.78283 2.99097 9.20489 3.60482 11.8389C4.15336 14.1939 5.68966 17.8822 9.89059 22.084C14.0915 26.2859 17.7808 27.8216 20.1348 28.3706C20.9685 28.5692 21.8221 28.6722 22.6791 28.6775C23.9879 28.7751 25.2846 28.3706 26.3058 27.5463L27.8063 26.0465C28.0888 25.7641 28.313 25.4288 28.4659 25.0597C28.6189 24.6906 28.6976 24.295 28.6976 23.8955C28.6976 23.496 28.6189 23.1004 28.4659 22.7313C28.313 22.3622 28.0888 22.0268 27.8063 21.7444Z" fill="#0F0F0F"/>
</svg>

<svg xmlns="http://www.w3.org/2000/svg" width="32" height="32" viewBox="0 0 32 32"><path d="M17 9a6 6 0 1 1 12 0 6 6 0 0 1-12 0m2.5-1a1 1 0 1 0 0 2h7a1 1 0 1 0 0-2zM27.806 21.744 25 18.938a3.034 3.034 0 0 0-4.286.003s-1.501 1.527-1.808 1.85a7.57 7.57 0 0 1-5.492-2.23 7.86 7.86 0 0 1-2.276-5.43c.37-.37 1.895-1.87 1.898-1.873a3.027 3.027 0 0 0 0-4.284L10.23 4.17a3.115 3.115 0 0 0-4.301 0l-1.5 1.5c-1.115 1.114-1.438 3.536-.824 6.17.548 2.355 2.085 6.043 6.286 10.245s7.89 5.738 10.244 6.287a11.3 11.3 0 0 0 2.544.306 5.16 5.16 0 0 0 3.627-1.13l1.5-1.5a3.04 3.04 0 0 0 0-4.303"/></svg>
